src/svg/bluetooth.svg

<svg height="1000" width="875.0" xmlns="http://www.w3.org/2000/svg">
    <path d="m571.5 334.2l-83.8 83.8-0.6-168z m-84.4 429.3l0.4-168 83.8 83.8z m325.4-256.9c0 401.6-140.4 493.4-361.5 493.4-221.1 0-388.5-91.8-388.5-493.4 0-401.5 162.9-506.6 384-506.6 221.1 0 366 105.3 366 506.6z m-309.6 0l155.1-173-244.3-262.3v345.5l-144.2-144.1-52.7 52.5 181.1 181.6-181.1 181.7 52.5 52.5 144.2-144.1 4.5 332 248.8-249z" />
  </svg>

<svg height="1000" width="875" xmlns="http://www.w3.org/2000/svg"><path d="M571.5 334.2L487.7 418l-.6 -168 84.4 84.2m-84.4 429.3l84.2 -84.2 -83.8 -83.8 -.4 168zM812.5 506.6C812.5 908.2 672.1 1000 451 1000S62.5 908.2 62.5 506.6 225.4 0 446.5 0s366 105.3 366 506.6zm-309.6 0L658 333.6 413.7 71.3v345.5L269.5 272.7l-52.7 52.5 181.1 181.6L216.8 688.5l52.5 52.5L413.5 596.9l4.5 332 248.8 -249L502.9 506.6z"/></svg>
